X:1
T:Mikrokosmos
T:Canon with Sustained Notes
T:by Béla Bartók / arranged by Bartók forever 2018
C:Béla Bartók
%%score [ { 1 2 } { 3 4 } ]
L:1/8
Q:1/2=112
M:2/2
K:Eb
V:1 treble transpose=-2 nm="Trompete in B" snm="B Tpt."
V:2 treble transpose=-2 nm="Trompete in B" snm="B Tpt."
V:3 bass nm="Posaune" snm="Psn."
V:4 bass nm="Bassposaune" snm="B.psn."
V:1
[K:Eb]"^Grave,"!f!"_marcato, legato" B4 c4 | d4 =e4 | f4 d2 f2 | =e4 c4 | !breath!d4 B2 d2 | %5
 c4 f4- | f4 =e2 c2 | !breath!B4 B4- | B4 c4 | d4 =e4 | f4 d2 B2 | !breath!c4 c4- | c2 d2 =e2 d2 | %13
 c4 c2 d2 | =e2 f2 e2 d2 | c4 c4- | c4 c2 d2 | c4 c2 d2 |"^poco rit." c2 d2 c2 d2 | %19
[M:2/4]"^a tempo" b2 z2 |[M:2/2] z8 | z8 | z8 |!mf! c8- | c8- | c8- | c4 c4- | c8- | c6 z2 | %29
!p! c8 |"_cresc." c8 | c6 c2 |!f! f8 |] %33
V:2
[K:Eb]!mf! B8- | B8- | B8- | B8- | !breath!B4 B4- | B8- | B8 | !breath!B4 B4- | B8- | B8- | %10
 B6 B2- | !breath!B4 B4- | B8- | B4 B4- | B8- | B4 B4- | B4!f!"_marcato, legato" B2 d2 | B4 B2 d2 | %18
 B2 d2 B2 d2 |[M:2/4] B2 z2 |[M:2/2] z8 |!f!"_marcato, legato" F4 G4 | =A4 B4 | c4 =A2 c2 | B4 G4 | %25
 =A4 F2 A2 | G4 c4- | c4 B2 G2 | F4!mf! F2 z2 | B2 G2 F4 |"_cresc." B2 G2 F4 | B2 G2 F2 B2 | %32
!f! F8 |] %33
V:3
 z8 |!f!"_marcato, legato" E,4 F,4 | G,4 A,4 | B,4 G,2 B,2 | A,4 F,4 | !breath!G,4 E,2 G,2 | %6
 F,4 B,4- | B,4 A,2 F,2 | !breath!E,4 E,4- | E,4 F,4 | G,4 A,4 | B,4 G,2 E,2 | !breath!F,4 F,4- | %13
 F,2 G,2 A,2 G,2 | F,4 F,2 G,2 | A,2 B,2 A,2 G,2 | A,2 G,2 F,4 | F,2 G,2 F,4- | F,2 G,2 F,2 G,2 | %19
[M:2/4] A,2 z2 |[M:2/2] z8 | z8 |!mf! E,8- | E,8- | E,8- | E,4 E,4- | E,8- | E,8- | %28
 E,2 z2!p! E,4- | E,4 E,4- |"_cresc." E,4 E,4- | E,4 E,4 |!f! E,8 |] %33
V:4
 z8 |!mf! E,8- | E,8- | E,8- | E,8- | !breath!E,4 E,4- | E,8- | E,8 | !breath!E,4 E,4- | E,8- | %10
 E,8- | E,6 E,2- | !breath!E,4 E,4- | E,8- | E,4 E,4- | E,8- | E,8 | %17
!f!"_marcato, legato" E,2 G,2 E,4- | E,2 G,2 E,2 G,2 |[M:2/4] A,,2 z2 | %20
[M:2/2]!f!"_marcato, legato" A,,4 B,,4 | C,4 D,4 | E,4 C,2 E,2 | D,4 B,,4 | C,4 A,,2 C,2 | %25
 B,,4 E,4- | E,4 D,2 B,,2 | A,,4 A,,4- | A,,2 z2!mf! D,2 B,,2 | A,,4 D,2 B,,2 | %30
"_cresc." A,,4 D,2 B,,2 | A,,4 D,2 B,,2 |!f! E,,8 |] %33

